assets/Four-thirty/Flat/four-thirty_flat.svg

<svg width="32" height="32" viewBox="0 0 32 32" fill="none" xmlns="http://www.w3.org/2000/svg">
<path d="M28 16C28 22.6274 22.6274 28 16 28C9.37258 28 4 22.6274 4 16C4 9.37258 9.37258 4 16 4C22.6274 4 28 9.37258 28 16Z" fill="#E6E6E6"/>
<path d="M16.0288 15.0112C16.5811 15.0112 17.0288 15.4589 17.0288 16.0112V24.0066C17.0288 24.5589 16.5811 25.0066 16.0288 25.0066C15.4765 25.0066 15.0288 24.5589 15.0288 24.0066V16.0112C15.0288 15.4589 15.4765 15.0112 16.0288 15.0112Z" fill="#CA0B4A"/>
<path d="M22.0649 19.4836C21.7888 19.9619 21.1772 20.1258 20.6989 19.8497L15.5312 16.8661C15.0529 16.5899 14.889 15.9784 15.1652 15.5001C15.4413 15.0218 16.0529 14.8579 16.5312 15.134L21.6989 18.1176C22.1772 18.3938 22.3411 19.0053 22.0649 19.4836Z" fill="black"/>
<path d="M16 27C22.0751 27 27 22.0751 27 16C27 9.92487 22.0751 5 16 5C9.92487 5 5 9.92487 5 16C5 22.0751 9.92487 27 16 27ZM16 30C8.26801 30 2 23.732 2 16C2 8.26801 8.26801 2 16 2C23.732 2 30 8.26801 30 16C30 23.732 23.732 30 16 30Z" fill="#636363"/>
<path d="M18.02 16.0112C18.02 17.1096 17.1296 18 16.0312 18C14.9328 18 14.0424 17.1096 14.0424 16.0112C14.0424 14.9128 14.9328 14.0223 16.0312 14.0223C17.1296 14.0223 18.02 14.9128 18.02 16.0112Z" fill="#9B9B9B"/>
</svg>

<svg xmlns="http://www.w3.org/2000/svg" width="32" height="32" fill="none"><path fill="#E6E6E6" d="M28 16c0 6.627-5.373 12-12 12S4 22.627 4 16 9.373 4 16 4s12 5.373 12 12Z"/><path fill="#CA0B4A" d="M16.029 15.011a1 1 0 0 1 1 1v7.996a1 1 0 1 1-2 0V16.01a1 1 0 0 1 1-1Z"/><path fill="#000" d="M22.065 19.484a1 1 0 0 1-1.366.366l-5.168-2.984a1 1 0 1 1 1-1.732l5.168 2.984a1 1 0 0 1 .366 1.366Z"/><path fill="#636363" d="M16 27c6.075 0 11-4.925 11-11S22.075 5 16 5 5 9.925 5 16s4.925 11 11 11Zm0 3C8.268 30 2 23.732 2 16S8.268 2 16 2s14 6.268 14 14-6.268 14-14 14Z"/><path fill="#9B9B9B" d="M18.02 16.011a1.989 1.989 0 1 1-3.978 0 1.989 1.989 0 0 1 3.978 0Z"/></svg>
